X: 41899
T: Wacky, The
R: jig
M: 6/8
K: Fmajor
c'cc' bcb-|bag efg|fec cBc|GBc ABc|
cc'c bcb-|bag efg|fec cBc|GBA Bcd|
c2c' bcb-|bag efg|fec cBc|GBc ABc|
cc'c bcb-|bag efg|fec cBc|GBA Bcd||
cGc GeG|dGc Gdc|B2F ^FG^G|AB=B c^cd|
cGc GeG|dGc Gdc|B2F FBc|dcB c2 G|
cGc GeG|dGc Gdc|BFB FdF|cFB FcB|
cGcGeG|dGc Gdc|B2F FBc|dcB c2g||

